!!!COM: Josephine Lang
!!!CNT: Deutsch
!!!TXO: Deutsch
!!!OTL: "An die Entfernte"
!!!LYR: Lenau
!!!OPS: Op. 13
!!!ONM: No. 5
!!!ENC: Alyona Dzerbina, phrasing by LVH
!!!YOR: Josephine Lang: Selected Songs
!!!YOR: Da Capo Press, 1982
!!!ODT: 1843/
!!NB: Vocal melody only encoded.
**kern
*staff1
*clefG2
*k[b-]
*M2/4
*MM[Allegretto grazioso]
8r
=1
2r
=2
2r
=3
2r
=4
2r
=5
{(8.a
16b-
8cc
8g
=6
8g
8a
4b-
=7
8d
8d
8a
8g
=8
8f
16e
16d
4c)}
=9
{8.a
16b-
8cc
8g
=10
8g
8a
4b-
=11
8dd
8cc
8b-
16r
16a
=12
4a
8g}
8r
=13
{8g
16r
16g
8b-
8g
=14
8f
8e
8d
8c
=15
8c
8f
8g
8a
=16
4a
4g}
=17
{8g
16r
16g
8b-
8a
=18
8g
8f#
(8e
8f#)
=19
8g
16r
16g
16b-
16a
16g
16a
=20
(4b-
4cc
=21
8dd
16cc
16b-
16a
16g
16f
16e
=22
4cc
8f)}
8r
=23
2r
=24
2r
=25
2r
=26
2r
=27
{(8.a
16b-
8cc
8g
=28
8g
8a
4b-)
=29
8.d
16d
8a
8g
=30
(8f
16e
16d)
4c}
=31
{8a
16r
16b-
8cc
8g
=32
8g
8a
4b-
=33
8dd
8cc
8b-
8a
=34
4a
8g}
8r
=35
{8.g
16g
8b-
8g
=36
8f
8e
(8d
8c)
=37
8c
8f
8g
8a
=38
4a
4g}
=39
{(8.g
16g
16b-
16a
16g
16a
=40
8.b-
16b-
4cc
=41
8dd
16cc
16b-
16a
16g
16f
16e
=42
4cc
4f)}
=43
{(8ff
8dd
16cc
16b-
16d
16e
=44
4f
4f)}
=45
2r
=46
2r
=47
2r
=48
2r
=49
2r
=50
2r
=51
2r
=52
2r
=53
2r
=54
2r
==
*-
